assets/images/icon-instagram-footer.svg

<svg width="35" height="35" viewBox="0 0 35 35" fill="none" xmlns="http://www.w3.org/2000/svg">
<path fill-rule="evenodd" clip-rule="evenodd" d="M17.4978 0C27.1485 0 35 7.8515 35 17.4987C35 27.1494 27.1485 35 17.4978 35C7.85062 35 0 27.1494 0 17.4987C0 7.8515 7.85062 0 17.4978 0ZM23.6038 7.5484H11.3926C9.27183 7.5484 7.54752 9.27271 7.54752 11.3962V23.6074C7.54752 25.7282 9.27183 27.4525 11.3926 27.4525H23.6038C25.7273 27.4525 27.4516 25.7282 27.4516 23.6074V11.3962C27.4516 9.27271 25.7273 7.5484 23.6038 7.5484ZM12.4571 15.4572C12.2024 16.0872 12.0579 16.7788 12.0579 17.4987C12.0579 20.4997 14.4979 22.943 17.4991 22.943C20.5048 22.943 22.9447 20.4997 22.9447 17.4987C22.9447 16.7788 22.7967 16.0872 22.542 15.4572H25.5125V23.6074C25.5125 24.6612 24.6586 25.5114 23.6056 25.5114H11.3935C10.3396 25.5114 9.48666 24.6612 9.48666 23.6074V15.4572H12.4571ZM17.4991 13.9981C18.6702 13.9981 19.7056 14.5761 20.3426 15.4572C20.7559 16.0325 21.0035 16.7374 21.0035 17.4987C21.0035 19.4327 19.4306 21.0019 17.4991 21.0019C15.5685 21.0019 13.9956 19.4327 13.9956 17.4987C13.9991 16.7374 14.2432 16.0325 14.66 15.4572C15.2962 14.5725 16.3325 13.9981 17.4991 13.9981ZM25.1512 9.84014V13.213L21.7886 13.2236L21.7745 9.85072L24.7106 9.84014H25.1512Z" fill="#E0E0E0"/>
</svg>

<svg xmlns="http://www.w3.org/2000/svg" width="35" height="35" viewBox="0 0 35 35">
    <path fill="#CFCFCF" fill-rule="evenodd" d="M17.498 0C27.148 0 35 7.851 35 17.499 35 27.149 27.149 35 17.498 35 7.85 35 0 27.15 0 17.499 0 7.85 7.85 0 17.498 0zm6.106 7.548H11.393a3.85 3.85 0 0 0-3.845 3.848v12.211a3.849 3.849 0 0 0 3.845 3.845h12.21a3.85 3.85 0 0 0 3.849-3.845v-12.21a3.85 3.85 0 0 0-3.848-3.849zm-11.147 7.91c-.255.63-.4 1.32-.4 2.04a5.449 5.449 0 0 0 5.442 5.445 5.45 5.45 0 0 0 5.446-5.444 5.45 5.45 0 0 0-.403-2.042h2.97v8.15a1.904 1.904 0 0 1-1.906 1.904H11.394a1.904 1.904 0 0 1-1.907-1.904v-8.15zm5.042-1.46a3.505 3.505 0 0 1 3.505 3.5 3.507 3.507 0 0 1-3.505 3.504 3.507 3.507 0 0 1-3.503-3.503 3.494 3.494 0 0 1 .664-2.042 3.492 3.492 0 0 1 2.84-1.459zm7.652-4.158v3.373l-3.362.01-.014-3.372 2.936-.01h.44z"/>
</svg>
